X:1
T:Bremen (Neumark) 88.88.8
T:Bremen (Neumark) 88.88.8
T:George Neumark, 1641
T:Public Domain Courtesy of the Cyber Hymnal™
C:George Neumark, 1641
Z:Public Domain
Z:Courtesy of the Cyber Hymnal™
%%score ( 1 2 ) ( 3 4 )
L:1/8
Q:1/4=108
M:4/4
K:C
V:1 treble 
V:2 treble 
V:3 bass 
V:4 bass 
V:1
 E2 | [EA]2 [EB]2 [Ec]2 B2 | [CA]2 (BA) [E^G]2 [E=G]2 | [EG]2 [DF]2 [CE]2 [CA]2 | %4
 [FA]2 [E^G]2 [EA]2 E2 | [EA]2 [EB]2 [Ec]2 B2 | [CA]2 (BA) [E^G]2 [E=G]2 | %7
 [EG]2 [DF]2 [CE]2 [CA]2 | [FA]2 [E^G]2 [EA]2 [EB]2 | [Ec]2 [Gd]2 [Ge]2 [Ge]2 | %10
 [Ad]2 [Gd]2 [Ec]2 [Ee]2 | [Ed]2 [Ec]2 B2 ([EA][DB]) | c2 (z [^CA]2) x |] %13
V:2
 (CD) | x6 (ED) | x2 F2 x4 | x8 | x6 (CD) | x6 (ED) | x2 F2 x4 | x8 | x8 | x8 | x8 | x4 (FE) x2 | %12
 E3 (B2 D) |] %13
V:3
 (A,B,) | [A,C]2 [^G,B,]2 A,2 [E,G,]2 | A,2 (DC) [E,B,]2 [E,B,]2 | [A,,C]2 [B,,G,]2 [C,G,]2 A,2 | %4
 (B,C) [E,D]2 [A,,C]2 (A,B,) | [A,C]2 [^G,B,]2 A,2 [E,G,]2 | A,2 (DC) [E,B,]2 [E,B,]2 | %7
 [A,,C]2 [B,,G,]2 [C,G,]2 A,2 | (B,C) [E,D]2 [A,,C]2 [E,^G,]2 | A,2 B,2 C2 [C,C]2 | %10
 [F,C]2 [G,B,]2 [C,C]2 [C,G,]2 | [B,,^G,]2 [A,,A,]2 ([D,A,][E,G,]) [F,A,]2 | %12
 A,2 [E,^G,]2 [A,,A,]2 |] %13
V:4
 A,,2 | x4 A,2 x2 | (F,E,) D,2 x4 | x6 (F,E,) | D,2 x3 A,,2 x | x4 A,2 x2 | (F,E,) D,2 x4 | %7
 x6 (F,E,) | D,2 x6 | A,2 (G,F,) (E,D,) x2 | x8 | x8 | (E,D,) x4 |] %13

